svg/k8s-storageclass.svg

<?xml version="1.0" encoding="UTF-8"?>
<svg xmlns="http://www.w3.org/2000/svg" xmlns:xlink="http://www.w3.org/1999/xlink" width="32.978001" height="32" viewBox="0 0 32.978001 32">
<path fill-rule="nonzero" fill="rgb(19.607843%, 42.352942%, 89.803922%)" fill-opacity="1" d="M 16.378906 0.847656 C 16.105469 0.859375 15.835938 0.929688 15.585938 1.046875 L 4.722656 6.238281 C 4.15625 6.507812 3.742188 7.023438 3.601562 7.636719 L 0.921875 19.292969 C 0.78125 19.902344 0.925781 20.546875 1.320312 21.035156 L 8.839844 30.382812 C 9.234375 30.871094 9.832031 31.15625 10.460938 31.15625 L 22.515625 31.152344 C 23.148438 31.152344 23.746094 30.871094 24.140625 30.378906 L 31.65625 21.03125 C 32.050781 20.542969 32.199219 19.902344 32.058594 19.289062 L 29.375 7.632812 C 29.234375 7.019531 28.820312 6.503906 28.25 6.234375 L 17.386719 1.046875 C 17.074219 0.898438 16.726562 0.828125 16.378906 0.847656 M 16.378906 0.847656 "/>
<path fill-rule="nonzero" fill="rgb(100%, 100%, 100%)" fill-opacity="1" d="M 16.375 0.00390625 C 16.082031 0.0195312 15.796875 0.0898438 15.535156 0.214844 L 4.070312 5.695312 C 3.46875 5.980469 3.03125 6.523438 2.882812 7.167969 L 0.0546875 19.472656 C -0.078125 20.046875 0.03125 20.648438 0.351562 21.140625 C 0.390625 21.203125 0.433594 21.257812 0.476562 21.3125 L 8.414062 31.183594 C 8.832031 31.699219 9.464844 32 10.128906 32 L 22.851562 31.996094 C 23.519531 31.996094 24.152344 31.695312 24.566406 31.179688 L 32.5 21.3125 C 32.914062 20.796875 33.070312 20.117188 32.921875 19.472656 L 30.089844 7.164062 C 29.9375 6.519531 29.503906 5.976562 28.90625 5.691406 L 17.4375 0.214844 C 17.105469 0.0585938 16.742188 -0.015625 16.375 0.00390625 M 16.378906 0.847656 C 16.726562 0.828125 17.074219 0.898438 17.386719 1.046875 L 28.25 6.234375 C 28.816406 6.507812 29.230469 7.019531 29.375 7.632812 L 32.058594 19.289062 C 32.199219 19.902344 32.050781 20.542969 31.65625 21.03125 L 24.140625 30.378906 C 23.746094 30.871094 23.148438 31.15625 22.515625 31.152344 L 10.460938 31.15625 C 9.828125 31.15625 9.230469 30.871094 8.839844 30.382812 L 1.320312 21.035156 C 0.925781 20.546875 0.78125 19.902344 0.921875 19.292969 L 3.601562 7.636719 C 3.742188 7.023438 4.15625 6.507812 4.722656 6.238281 L 15.585938 1.046875 C 15.832031 0.929688 16.105469 0.859375 16.378906 0.847656 M 16.378906 0.847656 "/>
<path fill-rule="evenodd" fill="rgb(19.607843%, 42.352942%, 89.803922%)" fill-opacity="1" d="M 8.09375 17.101562 C 8.09375 17.789062 11.941406 18.347656 16.6875 18.347656 C 21.429688 18.347656 25.277344 17.789062 25.277344 17.101562 L 25.277344 20.476562 C 25.277344 21.164062 21.429688 21.722656 16.6875 21.722656 C 11.941406 21.722656 8.09375 21.164062 8.09375 20.476562 Z M 8.09375 17.101562 C 8.09375 16.414062 11.941406 15.855469 16.6875 15.855469 C 21.429688 15.855469 25.277344 16.414062 25.277344 17.101562 C 25.277344 17.789062 21.429688 18.347656 16.6875 18.347656 C 11.941406 18.347656 8.09375 17.789062 8.09375 17.101562 M 8.09375 17.101562 "/>
<path fill-rule="evenodd" fill="rgb(100%, 100%, 100%)" fill-opacity="1" stroke-width="3.04" stroke-linecap="square" stroke-linejoin="miter" stroke="rgb(93.333334%, 93.333334%, 93.333334%)" stroke-opacity="1" stroke-miterlimit="10" d="M 64.75 108.75 C 64.75 114.28125 95.53125 118.75 133.5 118.75 C 171.4375 118.75 202.21875 114.28125 202.21875 108.75 L 202.21875 135.75 C 202.21875 141.25 171.4375 145.71875 133.5 145.71875 C 95.53125 145.71875 64.75 141.25 64.75 135.75 Z M 64.71875 108.75 L 64.75 108.75 M 64.71875 108.75 L 64.78125 108.75 M 64.75 108.75 L 64.75 108.75 M 64.75 108.75 L 64.75 108.75 M 64.75 108.75 L 64.75 108.75 M 64.75 108.75 L 64.75 108.75 M 64.75 108.75 L 64.75 108.75 M 64.75 108.75 L 64.75 108.75 M 64.75 108.75 L 64.75 108.75 M 64.71875 108.75 L 64.75 108.75 M 64.75 108.75 L 64.75 108.75 M 64.75 108.75 L 64.75 108.75 M 64.75 108.75 L 64.75 108.75 M 64.75 108.75 L 64.75 108.75 M 64.75 108.75 L 64.75 108.75 M 64.75 108.75 L 64.75 108.75 M 64.71875 108.75 L 64.75 108.75 M 64.71875 108.75 L 64.78125 108.75 M 64.75 108.75 L 64.75 108.75 M 64.75 108.75 L 64.75 108.75 M 64.75 108.75 L 64.75 108.75 M 64.75 108.75 L 64.75 108.75 M 64.75 108.75 L 64.75 108.75 M 64.75 108.75 L 64.75 108.75 M 64.75 108.75 L 64.75 108.75 M 64.71875 108.75 L 64.75 108.75 M 64.75 108.75 L 64.75 108.75 M 64.75 108.75 L 64.75 108.75 M 64.75 108.75 L 64.75 108.75 M 64.75 108.75 L 64.75 108.75 M 64.75 108.75 L 64.75 108.75 M 64.75 108.75 L 64.75 108.75 M 64.71875 108.75 L 64.75 108.75 M 64.71875 108.75 L 64.78125 108.75 M 64.75 108.75 L 64.75 108.75 M 64.75 108.75 L 64.75 108.75 M 64.75 108.75 L 64.75 108.75 M 64.75 108.75 L 64.75 108.75 M 64.75 108.75 L 64.75 108.75 M 64.75 108.75 L 64.75 108.75 M 64.75 108.75 L 64.75 108.75 M 64.71875 108.75 L 64.75 108.75 M 64.75 108.75 L 64.75 108.75 M 64.75 108.75 L 64.75 108.75 M 64.75 108.75 L 64.75 108.75 M 64.75 108.75 L 64.75 108.75 M 64.75 108.75 L 64.75 108.75 M 64.75 108.75 L 64.75 108.75 M 64.71875 108.75 L 64.75 108.75 M 64.71875 108.75 L 64.78125 108.75 M 64.75 108.75 L 64.75 108.75 M 64.75 108.75 L 64.75 108.75 M 64.75 108.75 L 64.75 108.75 M 64.75 108.75 L 64.75 108.75 M 64.75 108.75 L 64.75 108.75 M 64.75 108.75 L 64.75 108.75 M 64.75 108.75 L 64.75 108.75 M 64.71875 108.75 L 64.75 108.75 M 64.75 108.75 L 64.75 108.75 M 64.75 108.75 L 64.75 108.75 M 64.75 108.75 L 64.75 108.75 M 64.75 108.75 L 64.75 108.75 M 64.75 108.75 L 64.75 108.75 M 64.75 108.75 " transform="matrix(0.125, 0, 0, 0.125, 0, 0)"/>
<path fill-rule="evenodd" fill="rgb(19.607843%, 42.352942%, 89.803922%)" fill-opacity="1" d="M 8.09375 12.878906 C 8.09375 12.1875 11.941406 11.632812 16.6875 11.632812 C 21.429688 11.632812 25.277344 12.1875 25.277344 12.878906 C 25.277344 13.566406 21.429688 14.125 16.6875 14.125 C 11.941406 14.125 8.09375 13.566406 8.09375 12.878906 M 8.09375 8.207031 C 8.09375 7.515625 11.941406 6.957031 16.6875 6.957031 C 21.429688 6.957031 25.277344 7.515625 25.277344 8.207031 C 25.277344 8.894531 21.429688 9.453125 16.6875 9.453125 C 11.941406 9.453125 8.09375 8.894531 8.09375 8.207031 M 7.898438 9.542969 C 7.898438 10.230469 11.746094 10.789062 16.488281 10.789062 C 21.234375 10.789062 25.078125 10.230469 25.078125 9.542969 L 25.078125 12.914062 C 25.078125 13.605469 21.234375 14.160156 16.488281 14.160156 C 11.746094 14.160156 7.898438 13.605469 7.898438 12.914062 Z M 7.898438 9.542969 "/>
<path fill="none" stroke-width="6.072" stroke-linecap="butt" stroke-linejoin="round" stroke="rgb(100%, 100%, 100%)" stroke-opacity="1" stroke-dasharray="24.280001 6.072" stroke-miterlimit="10" d="M 200.625 152.6875 C 200.625 158.1875 169.875 162.65625 131.90625 162.65625 C 93.96875 162.65625 63.1875 158.1875 63.1875 152.6875 C 63.1875 147.15625 93.96875 142.71875 131.90625 142.71875 C 169.875 142.71875 200.625 147.15625 200.625 152.6875 L 200.625 179.65625 C 200.625 185.1875 169.875 189.65625 131.90625 189.65625 C 93.96875 189.65625 63.1875 185.1875 63.1875 179.65625 L 63.1875 152.6875 " transform="matrix(0.125, 0, 0, 0.125, 0, 0)"/>
<path fill="none" stroke-width="6.072" stroke-linecap="butt" stroke-linejoin="round" stroke="rgb(100%, 100%, 100%)" stroke-opacity="1" stroke-miterlimit="10" d="M 200.625 108.53125 C 200.625 114.0625 169.875 118.53125 131.90625 118.53125 C 93.96875 118.53125 63.1875 114.0625 63.1875 108.53125 C 63.1875 103.03125 93.96875 98.5625 131.90625 98.5625 C 169.875 98.5625 200.625 103.03125 200.625 108.53125 L 200.625 135.53125 C 200.625 141.03125 169.875 145.5 131.90625 145.5 C 93.96875 145.5 63.1875 141.03125 63.1875 135.53125 L 63.1875 108.53125 " transform="matrix(0.125, 0, 0, 0.125, 0, 0)"/>
<path fill="none" stroke-width="6.072" stroke-linecap="butt" stroke-linejoin="round" stroke="rgb(100%, 100%, 100%)" stroke-opacity="1" stroke-dasharray="24.288 6.072" stroke-miterlimit="10" d="M 200.625 76.34375 C 200.625 81.84375 169.875 86.3125 131.90625 86.3125 C 93.96875 86.3125 63.1875 81.84375 63.1875 76.34375 C 63.1875 70.8125 93.96875 66.34375 131.90625 66.34375 C 169.875 66.34375 200.625 70.8125 200.625 76.34375 L 200.625 103.3125 C 200.625 108.84375 169.875 113.28125 131.90625 113.28125 C 93.96875 113.28125 63.1875 108.84375 63.1875 103.3125 L 63.1875 76.34375 " transform="matrix(0.125, 0, 0, 0.125, 0, 0)"/>
</svg>

<svg role="img" viewBox="0 0 32.978 32" xmlns="http://www.w3.org/2000/svg"><path d="M16.379.848a2.1 2.1 0 0 0-.793.199L4.723 6.238a2.06 2.06 0 0 0-1.121 1.399L.922 19.293c-.14.61.004 1.254.398 1.742l7.52 9.348c.394.488.992.773 1.62.773l12.056-.004c.632 0 1.23-.28 1.625-.773l7.515-9.348a2.04 2.04 0 0 0 .403-1.742L29.375 7.633a2.06 2.06 0 0 0-1.125-1.399L17.387 1.047a2.1 2.1 0 0 0-1.008-.2m0 0" fill="rgb(19.607843%, 42.352942%, 89.803922%)"/><path d="M16.375.004a2.2 2.2 0 0 0-.84.21L4.07 5.696a2.17 2.17 0 0 0-1.187 1.473L.055 19.473a2.16 2.16 0 0 0 .297 1.668q.06.091.125.172l7.937 9.87a2.21 2.21 0 0 0 1.715.817l12.723-.004c.668 0 1.3-.3 1.714-.816l7.934-9.867c.414-.516.57-1.196.422-1.84L30.09 7.164a2.19 2.19 0 0 0-1.184-1.473L17.438.215a2.2 2.2 0 0 0-1.063-.211m.004.844c.348-.02.695.05 1.008.199L28.25 6.234c.566.274.98.786 1.125 1.399l2.684 11.656a2.04 2.04 0 0 1-.403 1.742l-7.515 9.348a2.07 2.07 0 0 1-1.625.773l-12.055.004c-.633 0-1.23-.285-1.621-.773l-7.52-9.348a2.04 2.04 0 0 1-.398-1.742l2.68-11.656a2.06 2.06 0 0 1 1.12-1.399l10.864-5.191c.246-.117.52-.188.793-.2m0 0" fill="rgb(100%, 100%, 100%)"/><path d="M8.094 17.102c0 .687 3.847 1.246 8.594 1.246 4.742 0 8.59-.559 8.59-1.246v3.375c0 .687-3.848 1.246-8.59 1.246-4.747 0-8.594-.559-8.594-1.246Zm0 0c0-.688 3.847-1.247 8.594-1.247 4.742 0 8.59.56 8.59 1.247s-3.848 1.246-8.59 1.246c-4.747 0-8.594-.559-8.594-1.246m0 0" fill="rgb(19.607843%, 42.352942%, 89.803922%)" fill-rule="evenodd"/><path d="M8.094 13.594c0 .691 3.847 1.25 8.594 1.25 4.742 0 8.59-.559 8.59-1.25v3.375c0 .687-3.848 1.246-8.59 1.246-4.747 0-8.594-.559-8.594-1.246Zm-.004 0h.004m-.004 0h.008m-.004 0h0m0 0h0m0 0h0m0 0h0m0 0h0m0 0h0m0 0h0m-.004 0h.004m0 0h0m0 0h0m0 0h0m0 0h0m0 0h0m0 0h0m-.004 0h.004m-.004 0h.008m-.004 0h0m0 0h0m0 0h0m0 0h0m0 0h0m0 0h0m0 0h0m-.004 0h.004m0 0h0m0 0h0m0 0h0m0 0h0m0 0h0m0 0h0m-.004 0h.004m-.004 0h.008m-.004 0h0m0 0h0m0 0h0m0 0h0m0 0h0m0 0h0m0 0h0m-.004 0h.004m0 0h0m0 0h0m0 0h0m0 0h0m0 0h0m0 0h0m-.004 0h.004m-.004 0h.008m-.004 0h0m0 0h0m0 0h0m0 0h0m0 0h0m0 0h0m0 0h0m-.004 0h.004m0 0h0m0 0h0m0 0h0m0 0h0m0 0h0m0 0" fill="rgb(100%, 100%, 100%)" fill-rule="evenodd" stroke="rgb(93.333334%, 93.333334%, 93.333334%)" stroke-linecap="square" stroke-miterlimit="10" stroke-width=".38"/><path d="M8.094 12.879c0-.691 3.847-1.246 8.594-1.246 4.742 0 8.59.555 8.59 1.246 0 .687-3.848 1.246-8.59 1.246-4.747 0-8.594-.559-8.594-1.246m0-4.672c0-.691 3.847-1.25 8.594-1.25 4.742 0 8.59.559 8.59 1.25 0 .688-3.848 1.246-8.59 1.246-4.747 0-8.594-.558-8.594-1.246m-.196 1.336c0 .687 3.848 1.246 8.59 1.246 4.746 0 8.59-.559 8.59-1.246v3.371c0 .691-3.844 1.246-8.59 1.246-4.742 0-8.59-.555-8.59-1.246Zm0 0" fill="rgb(19.607843%, 42.352942%, 89.803922%)" fill-rule="evenodd"/><path d="M25.078 19.086c0 .687-3.844 1.246-8.59 1.246-4.742 0-8.59-.559-8.59-1.246 0-.691 3.848-1.246 8.59-1.246 4.746 0 8.59.555 8.59 1.246v3.371c0 .691-3.844 1.25-8.59 1.25-4.742 0-8.59-.559-8.59-1.25v-3.371" fill="none" stroke="rgb(100%, 100%, 100%)" stroke-dasharray="3.035 .759" stroke-linejoin="round" stroke-miterlimit="10" stroke-width=".759"/><path d="M25.078 13.566c0 .692-3.844 1.25-8.59 1.25-4.742 0-8.59-.558-8.59-1.25 0-.687 3.848-1.246 8.59-1.246 4.746 0 8.59.559 8.59 1.246v3.375c0 .688-3.844 1.247-8.59 1.247-4.742 0-8.59-.56-8.59-1.247v-3.375" fill="none" stroke="rgb(100%, 100%, 100%)" stroke-linejoin="round" stroke-miterlimit="10" stroke-width=".759"/><path d="M25.078 9.543c0 .687-3.844 1.246-8.59 1.246-4.742 0-8.59-.559-8.59-1.246 0-.691 3.848-1.25 8.59-1.25 4.746 0 8.59.559 8.59 1.25v3.371c0 .691-3.844 1.246-8.59 1.246-4.742 0-8.59-.555-8.59-1.246V9.543" fill="none" stroke="rgb(100%, 100%, 100%)" stroke-dasharray="3.036 .759" stroke-linejoin="round" stroke-miterlimit="10" stroke-width=".759"/></svg>
